X: 45
T: The Man with Two Wives
M: 2/4
L: 1/8
K: F
|:AB|c2cd|cBAB|c2cd|cBAB|c2f2|f2c2|e2d2|d2GA|
B2Bc|BAGA|B2Bc|BAGA|B2e2|d2^c2|c4|cBAB|
c2cd|cBAB|c2cd|cBAB|c2f2|f2c2|e2d2|d4|
B2GA|Bcde|d2c2|c2A2|=B2d2|g2=B2|c4-|c2:|
|:cA|B2e2|B2e2|B2e2|efed|c2f2|c2f2|A4|
GAGF|E2F2|G2A2|B2c2|d_ed=B|c4|cecB|A2F2|
cdcA|B2e2|B2e2|B2e2|efed|c2f2|c2f2|A4|
GAGF|E2FG|ABcd|e2e2|e3d|c2Bc|d2e2|1f2:|2f4||
D2E2|F3E|F2A2|FAFA|D2E2|F3E|F2A|GAGF|
E2F2|G3E|G2A2|GAGF|E2F2|G3E|G2A2|F4:|]
%%newpage
%%textfont * 14
%%begintext justify
%%32 Bar Barn Dance
%%endtext
